Obsidian/status/22s/gpm-inhibit.svg

<svg height="22" width="22" xmlns="http://www.w3.org/2000/svg"><path d="m3.0195312 3.9863281c-1.3498276-.025941-1.3637275 2.0074845-.0136718 2v10.9999999c-.0190515 1.34715 2.001478 1.350514 1.9980468.013672h-.0039062v-12.0429688c-.0164071-.5379404-.4522336-.9706489-.9941406-.9707031zm2.9804688 1v10.9999999h1.0058594v1.273438c0 .726801.7265625.726562.7265625.726562h.2734375 1v-2h1.9999996v1.996094h2v-1.996094h2v1.998047h1 .273438s.726562.000239.726562-.726563v-1.271484h.300782c.3878 0 .699218-.306348.699218-.6875v-9.6249999c0-.381152-.311418-.6875-.699218-.6875zm5 2.0136719h2v2h-2zm0 3h2v4h-2z" fill="#d3dae3"/></svg>

<svg xmlns="http://www.w3.org/2000/svg" width="22" height="22" version="1.1">
 <defs>
  <style id="current-color-scheme" type="text/css">
   .ColorScheme-Text { color:#d3dae3; } .ColorScheme-Highlight { color:#5294e2; }
  </style>
 </defs>
 <path style="fill:currentColor" class="ColorScheme-Text" d="M 3.0195312 3.9863281 C 1.6697036 3.9603871 1.6558037 5.9938126 3.0058594 5.9863281 L 3.0058594 16.986328 C 2.9868079 18.333478 5.0073374 18.336842 5.0039062 17 L 5 17 L 5 4.9570312 C 4.9835929 4.4190908 4.5477664 3.9863823 4.0058594 3.9863281 L 3.0195312 3.9863281 z M 6 4.9863281 L 6 15.986328 L 7.0058594 15.986328 L 7.0058594 17.259766 C 7.0058594 17.986567 7.7324219 17.986328 7.7324219 17.986328 L 8.0058594 17.986328 L 9.0058594 17.986328 L 9.0058594 15.986328 L 11.005859 15.986328 L 11.005859 17.982422 L 13.005859 17.982422 L 13.005859 15.986328 L 15.005859 15.986328 L 15.005859 17.984375 L 16.005859 17.984375 L 16.279297 17.984375 C 16.279297 17.984375 17.005859 17.984614 17.005859 17.257812 L 17.005859 15.986328 L 17.306641 15.986328 C 17.694441 15.986328 18.005859 15.67998 18.005859 15.298828 L 18.005859 5.6738281 C 18.005859 5.2926761 17.694441 4.9863281 17.306641 4.9863281 L 6 4.9863281 z M 11 7 L 13 7 L 13 9 L 11 9 L 11 7 z M 11 10 L 13 10 L 13 14 L 11 14 L 11 10 z"/>
</svg>
